svgs/thin/bell.svg

<svg xmlns="http://www.w3.org/2000/svg" viewBox="0 0 448 512"><!-- Font Awesome Pro 6.0.0-alpha2 by @fontawesome - https://fontawesome.com License - https://fontawesome.com/license (Commercial License) --><path d="M439.375 362.25C420.125 341.5 383.875 310.25 383.875 208C383.875 130.25 329.5 68.125 256 52.875V32C256 14.375 241.625 0 224 0S192 14.375 192 32V52.875C118.5 68.125 64.125 130.25 64.125 208C64.125 310.25 27.875 341.5 8.625 362.25C2.625 368.75 0 376.5 0 384C0.125 400.375 13 416 32.125 416H415.875C435 416 447.875 400.375 448 384C448 376.5 445.375 368.75 439.375 362.25ZM415.875 400H32.125C22.109 400 16.061 391.803 16 384C16 377.024 19.823 373.696 24.092 369.166C45.049 347.088 80.125 310.137 80.125 208C80.125 143.277 119.844 84.181 208 65.896V32C208 23.178 215.178 16 224 16S240 23.178 240 32V65.896C328.751 84.305 367.875 144.066 367.875 208C367.875 310.137 402.951 347.088 423.908 369.166C427.79 373.285 432 376.913 432 383.877C431.939 391.803 425.891 400 415.875 400ZM280 440C275.594 440 272 443.578 272 448C272 474.469 250.469 496 224 496S176 474.469 176 448C176 443.578 172.406 440 168 440S160 443.578 160 448C160 483.297 188.719 512 224 512S288 483.297 288 448C288 443.578 284.406 440 280 440Z"/></svg>

<svg xmlns="http://www.w3.org/2000/svg" viewBox="0 0 448 512"><!--! Font Awesome Pro 6.0.0-alpha3 by @fontawesome - https://fontawesome.com License - https://fontawesome.com/license (Commercial License) --><path d="M439.4 362.3c-19.25-20.75-55.5-52-55.5-154.3c0-77.75-54.38-139.9-127.9-155.1V32c0-17.62-14.38-32-32-32S192 14.38 192 32v20.88C118.5 68.13 64.13 130.3 64.13 208c0 102.3-36.25 133.5-55.5 154.3C2.625 368.8 0 376.5 0 384c.125 16.38 13 32 32.13 32h383.8c19.12 0 32-15.62 32.13-32C448 376.5 445.4 368.8 439.4 362.3zM415.9 400H32.13C22.11 400 16.06 391.8 16 384c0-6.976 3.823-10.3 8.092-14.83C45.05 347.1 80.13 310.1 80.13 208c0-64.72 39.72-123.8 127.9-142.1V32c0-8.822 7.178-16 16-16s16 7.178 16 16v33.9C328.8 84.3 367.9 144.1 367.9 208c0 102.1 35.08 139.1 56.03 161.2C427.8 373.3 432 376.9 432 383.9C431.9 391.8 425.9 400 415.9 400zM280 440c-4.406 0-7.853 3.578-7.853 8c0 26.47-21.68 48-48.15 48S175.8 474.5 175.8 448c0-4.422-3.44-8-7.847-8S160 443.6 160 448c0 35.3 28.72 64 63.1 64S288 483.3 288 448C288 443.6 284.4 440 280 440z"/></svg>
